app/assets/images/icons/active/arrow-left.svg

<?xml version="1.0" encoding="UTF-8" standalone="no"?>
<svg width="32px" height="232px" viewBox="0 0 32 232" version="1.1" xmlns="http://www.w3.org/2000/svg" xmlns:xlink="http://www.w3.org/1999/xlink" xmlns:sketch="http://www.bohemiancoding.com/sketch/ns">
    <title>arrow-left</title>
    <description>Created with Sketch (http://www.bohemiancoding.com/sketch)</description>
    <defs></defs>
    <g id="Functions" stroke="none" stroke-width="1" fill="none" fill-rule="evenodd" sketch:type="MSPage">
        <path d="M4.20901266,135.250286 L12.9030127,126.651124 C13.8460127,125.718625 15.3770127,125.718625 16.3190127,126.651124 C17.2640127,127.583623 17.2640127,129.098563 16.3190127,130.027106 L11.7990127,134.498749 L26.0840127,134.498749 C27.4160127,134.498749 28.5000127,135.566722 28.5000127,136.887845 C28.5000127,138.210945 27.4160127,139.27694 26.0840127,139.27694 L11.6680127,139.27694 L16.3190127,143.877136 C17.2640127,144.80469 17.2640127,146.320619 16.3190127,147.253118 C15.3770127,148.184627 13.8460127,148.184627 12.9030127,147.253118 L4.20901266,138.654945 C3.73301266,138.185234 3.49801266,137.567194 3.50001266,136.951132 C3.49801266,136.338036 3.73301266,135.719996 4.20901266,135.250286" id="arrow-left--lp-blue" fill="#206FAC" sketch:type="MSShapeGroup"></path>
        <path d="M4.20901266,95.2502858 L12.9030127,86.6511241 C13.8460127,85.7186253 15.3770127,85.7186253 16.3190127,86.6511241 C17.2640127,87.5836229 17.2640127,89.0985626 16.3190127,90.0271059 L11.7990127,94.4987491 L26.0840127,94.4987491 C27.4160127,94.4987491 28.5000127,95.5667223 28.5000127,96.8878447 C28.5000127,98.2109448 27.4160127,99.2769402 26.0840127,99.2769402 L11.6680127,99.2769402 L16.3190127,103.877136 C17.2640127,104.80469 17.2640127,106.320619 16.3190127,107.253118 C15.3770127,108.184627 13.8460127,108.184627 12.9030127,107.253118 L4.20901266,98.6549447 C3.73301266,98.1852343 3.49801266,97.5671943 3.50001266,96.951132 C3.49801266,96.3380363 3.73301266,95.7199962 4.20901266,95.2502858" id="arrow-left--white" fill="#FFFFFF" sketch:type="MSShapeGroup"></path>
        <path d="M4.20901266,55.2502858 L12.9030127,46.6511241 C13.8460127,45.7186253 15.3770127,45.7186253 16.3190127,46.6511241 C17.2640127,47.5836229 17.2640127,49.0985626 16.3190127,50.0271059 L11.7990127,54.4987491 L26.0840127,54.4987491 C27.4160127,54.4987491 28.5000127,55.5667223 28.5000127,56.8878447 C28.5000127,58.2109448 27.4160127,59.2769402 26.0840127,59.2769402 L11.6680127,59.2769402 L16.3190127,63.8771357 C17.2640127,64.8046902 17.2640127,66.3206188 16.3190127,67.2531176 C15.3770127,68.1846275 13.8460127,68.1846275 12.9030127,67.2531176 L4.20901266,58.6549447 C3.73301266,58.1852343 3.49801266,57.5671943 3.50001266,56.951132 C3.49801266,56.3380363 3.73301266,55.7199962 4.20901266,55.2502858" id="arrow-left--body-grey" fill="#67737B" sketch:type="MSShapeGroup"></path>
        <path d="M4.20901266,15.2502858 L12.9030127,6.65112409 C13.8460127,5.7186253 15.3770127,5.7186253 16.3190127,6.65112409 C17.2640127,7.58362289 17.2640127,9.0985626 16.3190127,10.0271059 L11.7990127,14.4987491 L26.0840127,14.4987491 C27.4160127,14.4987491 28.5000127,15.5667223 28.5000127,16.8878447 C28.5000127,18.2109448 27.4160127,19.2769402 26.0840127,19.2769402 L11.6680127,19.2769402 L16.3190127,23.8771357 C17.2640127,24.8046902 17.2640127,26.3206188 16.3190127,27.2531176 C15.3770127,28.1846275 13.8460127,28.1846275 12.9030127,27.2531176 L4.20901266,18.6549447 C3.73301266,18.1852343 3.49801266,17.5671943 3.50001266,16.951132 C3.49801266,16.3380363 3.73301266,15.7199962 4.20901266,15.2502858" id="arrow-left--title-grey" fill="#3A434E" sketch:type="MSShapeGroup"></path>
    </g>
</svg>

<svg width="32" height="232" viewBox="0 0 32 232" xmlns="http://www.w3.org/2000/svg" xmlns:sketch="http://www.bohemiancoding.com/sketch/ns"><title>arrow-left</title><g sketch:type="MSPage" fill="none"><path d="M4.209 135.25l8.694-8.599c.943-.932 2.474-.932 3.416 0 .945.932.945 2.447 0 3.376l-4.52 4.472h14.285c1.332 0 2.416 1.068 2.416 2.389 0 1.323-1.084 2.389-2.416 2.389h-14.416l4.651 4.6c.945.928.945 2.443 0 3.376-.942.932-2.473.932-3.416 0l-8.694-8.598c-.476-.47-.711-1.088-.709-1.704-.002-.613.233-1.231.709-1.701" fill="#206FAC" sketch:type="MSShapeGroup"/><path d="M4.209 95.25l8.694-8.599c.943-.932 2.474-.932 3.416 0 .945.932.945 2.447 0 3.376l-4.52 4.472h14.285c1.332 0 2.416 1.068 2.416 2.389 0 1.323-1.084 2.389-2.416 2.389h-14.416l4.651 4.6c.945.928.945 2.443 0 3.376-.942.932-2.473.932-3.416 0l-8.694-8.598c-.476-.47-.711-1.088-.709-1.704-.002-.613.233-1.231.709-1.701" fill="#fff" sketch:type="MSShapeGroup"/><path d="M4.209 55.25l8.694-8.599c.943-.932 2.474-.932 3.416 0 .945.932.945 2.447 0 3.376l-4.52 4.472h14.285c1.332 0 2.416 1.068 2.416 2.389 0 1.323-1.084 2.389-2.416 2.389h-14.416l4.651 4.6c.945.928.945 2.443 0 3.376-.942.932-2.473.932-3.416 0l-8.694-8.598c-.476-.47-.711-1.088-.709-1.704-.002-.613.233-1.231.709-1.701" fill="#67737B" sketch:type="MSShapeGroup"/><path d="M4.209 15.25l8.694-8.599c.943-.932 2.474-.932 3.416 0 .945.932.945 2.447 0 3.376l-4.52 4.472h14.285c1.332 0 2.416 1.068 2.416 2.389 0 1.323-1.084 2.389-2.416 2.389h-14.416l4.651 4.6c.945.928.945 2.443 0 3.376-.942.932-2.473.932-3.416 0l-8.694-8.598c-.476-.47-.711-1.088-.709-1.704-.002-.613.233-1.231.709-1.701" fill="#3A434E" sketch:type="MSShapeGroup"/></g></svg>
